svg/file_cabinet.svg

<svg xmlns="http://www.w3.org/2000/svg" viewBox="0 0 24 24"><path d="M14 8h-4V6h4zm6-4v16c0 1.11-.89 2-2 2H6c-1.11 0-2-.89-2-2V4a2 2 0 0 1 2-2h12a2 2 0 0 1 2 2m-2 9H6v7h12zm0-9H6v7h12zm-4 11h-4v2h4z"/></svg>

<?xml version="1.0" encoding="UTF-8"?><!DOCTYPE svg PUBLIC "-//W3C//DTD SVG 1.1//EN" "http://www.w3.org/Graphics/SVG/1.1/DTD/svg11.dtd"><svg xmlns="http://www.w3.org/2000/svg" xmlns:xlink="http://www.w3.org/1999/xlink" version="1.1" id="mdi-file-cabinet" width="24" height="24" viewBox="0 0 24 24"><path d="M14,8H10V6H14V8M20,4V20C20,21.11 19.11,22 18,22H6C4.89,22 4,21.11 4,20V4A2,2 0 0,1 6,2H18C19.11,2 20,2.9 20,4M18,13H6V20H18V13M18,4H6V11H18V4M14,15H10V17H14V15Z" /></svg>
